X:34
T: Ritter und Magd
N: Q0055g
O: Osteuropa, UdSSR, Russland, Wolgagebiet
N: 12/8 - Taktwechsel in 6/8 geaendert. Tempowechsel; Verzierung
N: (Vorschlag) in der zweiten Zeile.
R: Ballade, Betrug, Schwangerschaft, Tod, Selbstmord, Herr und Magd
M: 6/8
L: 1/16
K: G
D2 | G3GB2A2B2c2 | d3ec2A6 | z6
d4B2 | e2d2c2B2A2G2 | B6G4
B2 | d3ed2c4d2 | B2c2B2A6 | z6
d4B2 | c4B2A4G2 | B6G4

